!!!OTL: hong xiu xie
!!!ARE: Asia, China,ÿJiangxi, ganzhou
!! IV, 240
!!!SCT: C1681
!!!YEM: Copyright 1995, estate of Helmut Schaffrath.
**kern
*ICvox
*Ivox
*M2/4
*k[]
*C:
{8dd
4dd
8ee
=1
16dd
16cc
16a
16cc
8.g
16a
=2
8.cc
16ee
16dd
16cc
8a
=3
2g}
=4
{8g
4g
8cc
=5
8.a
16cc
8.d
16e
=6
8g
16a
16cc
16a
16g
16e
16g
=7
2d}
=8
{8.ee
16gg
16ee
16dd
8cc
=9
2dd
=10
8cc
16a
16cc
16dd
16cc
8a
=11
2g}
=12
{8g
4g
8cc
=13
8a
8cc
8.d
16e
=14
8g
16e
16g
16a
16g
16e
16g
=15
2d}
=16
{8e
16e
16g
8d
16d
16e
=17
4.g
8a
=18
8.cc
16ee
16dd
16cc
8a
=19
2g}
=20
{8g
4g
8cc
=21
8.a
16cc
8d
8e
=22
8dd
16ee
16gg
16ee
16dd
8cc
=23
2dd}
==
!!!AGN: Wuge, Dengge
!!!AMT: simple duple
!!!AIN: vox
!!!EED: Helmut Schaffrath
!!!EEV: 1.0
*-
